humanity-icon-theme/Humanity/places/16/user-trash.svg

<?xml version="1.0" encoding="UTF-8" standalone="no"?>
<!-- Created with Inkscape (http://www.inkscape.org/) -->

<svg
   xmlns:svg="http://www.w3.org/2000/svg"
   xmlns="http://www.w3.org/2000/svg"
   xmlns:xlink="http://www.w3.org/1999/xlink"
   version="1.1"
   width="16"
   height="16"
   id="svg2931">
  <defs
     id="defs2933">
    <linearGradient
       x1="97.717728"
       y1="17.833755"
       x2="62.373119"
       y2="17.833755"
       id="linearGradient3471"
       xlink:href="#linearGradient2793"
       gradientUnits="userSpaceOnUse"
       gradientTransform="matrix(0.2208277,0,0,0.2160808,-2.1086239,-1.7480921)"
       spreadMethod="reflect" />
    <linearGradient
       id="linearGradient2793">
      <stop
         id="stop2795"
         style="stop-color:#555753;stop-opacity:1"
         offset="0" />
      <stop
         id="stop2797"
         style="stop-color:#d3d7cf;stop-opacity:0"
         offset="1" />
    </linearGradient>
    <linearGradient
       x1="32.626884"
       y1="37.21664"
       x2="63.999931"
       y2="37.21664"
       id="linearGradient3473"
       xlink:href="#linearGradient2793"
       gradientUnits="userSpaceOnUse"
       gradientTransform="matrix(0.214231,0,0,0.19643,-1.686422,-1.3151856)"
       spreadMethod="reflect" />
    <linearGradient
       x1="63.999081"
       y1="6.4738212"
       x2="63.999081"
       y2="31.225994"
       id="linearGradient3475"
       xlink:href="#linearGradient4302"
       gradientUnits="userSpaceOnUse"
       gradientTransform="matrix(0.2057158,0,0,0.2088959,-1.1414726,-2.1579663)" />
    <linearGradient
       id="linearGradient4302">
      <stop
         id="stop4304"
         style="stop-color:#c0c0c0;stop-opacity:1"
         offset="0" />
      <stop
         id="stop4306"
         style="stop-color:#abacb0;stop-opacity:1"
         offset="1" />
    </linearGradient>
    <linearGradient
       x1="92.004761"
       y1="47.258526"
       x2="55.992207"
       y2="10.900407"
       id="linearGradient3477"
       xlink:href="#linearGradient2793"
       gradientUnits="userSpaceOnUse"
       gradientTransform="matrix(0.1795663,0,0,0.1823422,0.5319063,0.3934159)"
       spreadMethod="reflect" />
    <linearGradient
       x1="4.8849959"
       y1="38.13002"
       x2="31.710253"
       y2="39.751118"
       id="linearGradient3446"
       xlink:href="#linearGradient2338"
       gradientUnits="userSpaceOnUse"
       gradientTransform="matrix(0.34524644,0,0,0.52929002,4.8403655,8.3269529)" />
    <linearGradient
       id="linearGradient2338">
      <stop
         id="stop3317"
         style="stop-color:#f8f8f8;stop-opacity:0.15463917"
         offset="0" />
      <stop
         id="stop3322"
         style="stop-color:#b0b2b6;stop-opacity:0.17525773"
         offset="0.58783686" />
      <stop
         id="stop3319"
         style="stop-color:#5b5e62;stop-opacity:0.3298969"
         offset="0.75932533" />
      <stop
         id="stop2342"
         style="stop-color:#ffffff;stop-opacity:0.15463917"
         offset="1" />
    </linearGradient>
    <linearGradient
       x1="29.659733"
       y1="-20.890686"
       x2="29.232977"
       y2="57.745785"
       id="linearGradient3448"
       xlink:href="#linearGradient4294"
       gradientUnits="userSpaceOnUse"
       gradientTransform="matrix(0.28539147,0,0,0.3738992,3.5007654,15.001923)" />
    <linearGradient
       id="linearGradient4294">
      <stop
         id="stop4296"
         style="stop-color:#bfc2c2;stop-opacity:1"
         offset="0" />
      <stop
         id="stop4298"
         style="stop-color:#676b73;stop-opacity:1"
         offset="1" />
    </linearGradient>
    <linearGradient
       x1="23.373713"
       y1="53.131126"
       x2="13.483184"
       y2="53.131126"
       id="linearGradient3488"
       xlink:href="#linearGradient157"
       gradientUnits="userSpaceOnUse" />
    <linearGradient
       id="linearGradient157">
      <stop
         id="stop158"
         style="stop-color:#babdb6;stop-opacity:1"
         offset="0" />
      <stop
         id="stop159"
         style="stop-color:#f1f5ec;stop-opacity:1"
         offset="1" />
    </linearGradient>
    <linearGradient
       x1="27.405413"
       y1="52.355087"
       x2="37.462498"
       y2="68.298302"
       id="linearGradient3490"
       xlink:href="#linearGradient2793"
       gradientUnits="userSpaceOnUse"
       gradientTransform="matrix(0.3397845,0,0,0.366125,0.76225221,0.930811)"
       spreadMethod="reflect" />
  </defs>
  <g
     transform="matrix(0.9852467,0,0,1.0000033,-2.9427114,-17.000385)"
     id="layer1">
    <g
       transform="matrix(0.70242299,0,0,0.64351585,3.4224409,17.976921)"
       id="g3483"
       style="stroke-width:1.49807274;stroke-miterlimit:4;stroke-dasharray:none">
      <path
         d="m 41.359416,53.131126 c 0,1.117935 -1.754141,2.228987 -4.767202,3.019486 -3.01306,0.790499 -4.761488,1.250711 -9.022598,1.250711 -4.26111,0 -6.009968,-0.460212 -9.023028,-1.250711 -3.01306,-0.790499 -4.767201,-1.901551 -4.767201,-3.019486 0,-1.117935 1.754141,-2.228987 4.767201,-3.019486 3.01306,-0.790499 4.761918,-1.250711 9.023028,-1.250711 4.26111,0 6.009538,0.460212 9.022598,1.250711 3.013061,0.790499 4.767202,1.901551 4.767202,3.019486 z"
         transform="matrix(0.422131,0,0,0.4304658,-0.6630769,-2.1932058)"
         id="path2512"
         style="fill:url(#linearGradient3488);fill-opacity:1;fill-rule:evenodd;stroke:#838383;stroke-width:3.51430893;stroke-linecap:round;stroke-linejoin:round;stroke-miterlimit:4;stroke-opacity:1;stroke-dasharray:none;stroke-dashoffset:0;marker:none;visibility:visible;display:inline;overflow:visible" />
      <path
         d="m 41.139781,53.131126 c 0,1.117935 -1.754141,2.228987 -4.767201,3.019486 -3.013061,0.790499 -4.651666,1.250711 -8.912776,1.250711 -4.26111,0 -5.900156,-0.460212 -8.913216,-1.250711 -3.01306,-0.790499 -4.767201,-1.901551 -4.767201,-3.019486 0,-1.117935 1.754141,-2.228987 4.767201,-3.019486 3.01306,-0.790499 4.652106,-1.250711 8.913216,-1.250711 4.26111,0 5.899715,0.460212 8.912776,1.250711 3.01306,0.790499 4.767201,1.901551 4.767201,3.019486 z"
         transform="matrix(0.4042741,0,0,0.366125,-0.126375,0.930811)"
         id="path2514"
         style="fill:#d9dcd5;fill-opacity:1;fill-rule:evenodd;stroke:#838383;stroke-width:3.89385915;stroke-linecap:round;stroke-linejoin:round;stroke-miterlimit:4;stroke-opacity:1;stroke-dasharray:none;stroke-dashoffset:0;marker:none;visibility:visible;display:inline;overflow:visible" />
      <path
         d="m 16.505104,20.383445 a 5.530415,1.5634265 0 0 1 -11.0608297,0 5.530415,1.5634265 0 1 1 11.0608297,0 z"
         id="path2518"
         style="opacity:0.5;fill:url(#linearGradient3490);fill-opacity:1;fill-rule:evenodd;stroke:none;stroke-width:1.49807274;marker:none;visibility:visible;display:inline;overflow:visible" />
    </g>
    <path
       d="m 5.8561083,20.77498 c -0.012948,-0.02182 0.7123943,9.370056 0.7125432,9.374818 0.048927,1.569661 1.6632872,2.2273 4.6048395,2.350612 3.594349,-0.04854 4.427307,-1.259112 4.478237,-2.350612 0.0041,-0.02152 0.728625,-9.353299 0.732708,-9.374818 0.678846,-3.475084 -3.051132,-3.219647 -4.944793,-3.219647 -2.033257,0 -6.3484371,-0.08169 -5.5835347,3.219647 z"
       id="path2520"
       style="fill:url(#linearGradient3446);fill-opacity:1;fill-rule:evenodd;stroke:url(#linearGradient3448);stroke-width:1.00719106;stroke-linecap:round;stroke-linejoin:round;stroke-miterlimit:4;stroke-opacity:1;stroke-dasharray:none" />
    <g
       transform="matrix(0.65342214,0,0,0.9313124,3.2497249,17.028456)"
       id="g3454"
       style="stroke-width:1.29112196;stroke-miterlimit:4;stroke-dasharray:none">
      <path
         d="m 98.723392,24.095787 a 32.811855,6.9077592 0 1 1 -65.62371,0 32.811855,6.9077592 0 1 1 65.62371,0 z"
         transform="matrix(0.2208277,0,0,0.2160808,-2.1086239,-1.7480921)"
         id="path2516"
         style="opacity:0.77272728;fill:#585858;fill-opacity:0.51308899;fill-rule:evenodd;stroke:#636363;stroke-width:5.91061115;stroke-linecap:round;stroke-linejoin:round;stroke-miterlimit:4;stroke-opacity:1;stroke-dasharray:none;stroke-dashoffset:0;marker:none;visibility:visible;display:inline;overflow:visible" />
      <path
         d="m 4.4590384,3.613216 c 0,0 6.0170886,-1.8960796 14.8518386,-0.2790603 3.368647,-2.54991505 -7.944918,-2.73649441 -7.944918,-2.73649441 0,0 -9.7035323,0.52783261 -6.9069206,3.01555471 z"
         id="path2522"
         style="fill:#d9dcd5;fill-opacity:1;fill-rule:evenodd;stroke:none" />
      <path
         d="m 4.4590384,3.613216 c 0,0 6.0170886,-1.8960796 14.8518386,-0.2790603 3.368647,-2.54991505 -7.944918,-2.41408851 -7.944918,-2.41408851 0,0 -9.7035323,0.20542671 -6.9069206,2.69314881 z"
         id="path2524"
         style="fill:url(#linearGradient3471);fill-opacity:1;fill-rule:evenodd;stroke:#636363;stroke-width:1.29112196;stroke-linecap:round;stroke-linejoin:round;stroke-miterlimit:4;stroke-opacity:1;stroke-dasharray:none" />
      <path
         d="m 3.4810767,2.377698 c 0,0.09548 0,1.5994026 0,1.6948831 0,1.0357191 3.8263951,1.8772007 8.5432713,1.8772007 4.716875,0 8.543271,-0.8414816 8.543271,-1.8772007 0,-0.09548 0,-1.5994027 0,-1.6948831 -5.022324,3.0665603 -16.3629575,1.4775683 -17.0865423,0 z"
         id="path2526"
         style="fill:#ffffff;fill-opacity:1;fill-rule:evenodd;stroke:#808389;stroke-width:1.29112196;stroke-linecap:round;stroke-linejoin:round;stroke-miterlimit:4;stroke-opacity:1;stroke-dasharray:none;stroke-dashoffset:0;marker:none;visibility:visible;display:inline;overflow:visible" />
      <path
         d="m 3.4810767,2.8077197 c 0,0.09548 0,1.1693809 0,1.2648614 0,1.0357191 3.8263951,1.8772007 8.5432713,1.8772007 4.716875,0 8.543271,-0.8414816 8.543271,-1.8772007 0,-0.09548 0,-1.5994027 0,-1.6948831 C 15.545289,5.4443588 4.2922734,3.8012691 3.4810767,2.8077197 z"
         id="path2528"
         style="fill:url(#linearGradient3473);fill-opacity:1;fill-rule:evenodd;stroke:#808389;stroke-width:1.29112196;stroke-linecap:round;stroke-linejoin:round;stroke-miterlimit:4;stroke-opacity:1;stroke-dasharray:none;stroke-dashoffset:0;marker:none;visibility:visible;display:inline;overflow:visible" />
      <path
         d="m 11.769015,0.50724987 c -0.278916,0.001536 -0.557281,0.007619 -0.835004,0.0135051 C 8.8548365,0.59584932 6.720681,0.7651173 4.8267453,1.3715724 4.19821,1.5903296 3.3956463,1.9424901 3.4879776,2.4789859 3.6876357,3.0579227 4.6183178,3.3383298 5.3650131,3.5593893 7.6141478,4.1380963 10.071174,4.2656544 12.466003,4.2548987 14.67887,4.213857 16.948552,4.0653334 18.99422,3.4716065 19.667112,3.2521297 20.518481,2.9404809 20.567618,2.3844508 20.567704,2.3195428 20.555021,2.2506649 20.526212,2.1886276 20.198988,1.6269062 19.268375,1.3717391 18.483556,1.1554918 16.34089,0.64279326 14.040192,0.49474746 11.769015,0.50724987 z"
         id="path2530"
         style="fill:none;stroke:url(#linearGradient3475);stroke-width:1.29112196;stroke-linecap:round;stroke-linejoin:round;stroke-miterlimit:4;stroke-opacity:1;stroke-dasharray:none;stroke-dashoffset:0;marker:none;visibility:visible;display:inline;overflow:visible" />
      <path
         d="m 11.769016,0.50724987 c -0.278917,0.001536 -0.557282,0.007619 -0.835005,0.0135051 C 8.854837,0.59584932 6.720681,0.7651173 4.8267457,1.3715725 4.1982105,1.5903296 3.3956463,1.9424901 3.4879776,2.478986 3.6876357,3.057923 4.6183178,3.33833 5.3650131,3.5593893 7.6141482,4.1380965 10.071174,4.2656544 12.466004,4.2548989 14.67887,4.213857 16.948553,4.0653335 18.994221,3.4716067 19.667113,3.2521296 20.518482,2.940481 20.567619,2.3844508 20.567705,2.3195428 20.555022,2.250665 20.526212,2.1886276 20.198988,1.6269063 19.268375,1.3717391 18.483557,1.1554918 16.340891,0.64279326 14.040192,0.49474746 11.769016,0.50724987 z M 11.361864,0.8043607 c 2.19696,-0.0296814 4.437315,0.0794951 6.514417,0.5334492 0.710914,0.1789144 1.553023,0.3928242 1.849432,0.8575703 0.0261,0.051328 0.04148,0.101606 0.04141,0.155308 -0.04451,0.4600375 -0.818951,0.7164988 -1.42848,0.8980854 C 16.485608,3.7399996 14.42909,3.8698113 12.424602,3.9037677 10.255284,3.9126667 8.030333,3.8018505 5.9929914,3.3230512 5.3166102,3.1401553 4.4762355,2.9107081 4.2953787,2.4317184 4.2117418,1.9878429 4.9336828,1.6943663 5.50303,1.5133754 7.2186193,1.0116182 9.1541389,0.8732435 11.037524,0.81111346 c 0.107816,-0.002087 0.216294,-0.005293 0.32434,-0.006753 z"
         id="path2532"
         style="fill:url(#linearGradient3477);fill-opacity:1;fill-rule:evenodd;stroke:none;stroke-width:1.29112196;marker:none;visibility:visible;display:inline;overflow:visible" />
    </g>
  </g>
</svg>

<?xml version="1.0" encoding="UTF-8" standalone="no"?>
<!-- Created with Inkscape (http://www.inkscape.org/) -->
<svg id="svg2931" xmlns="http://www.w3.org/2000/svg" height="16" width="16" version="1.1" xmlns:xlink="http://www.w3.org/1999/xlink">
 <defs id="defs2933">
  <linearGradient id="linearGradient3471" y2="17.834" xlink:href="#linearGradient2793" spreadMethod="reflect" gradientUnits="userSpaceOnUse" x2="62.373" gradientTransform="matrix(.22083 0 0 .21608 -2.1086 -1.7481)" y1="17.834" x1="97.718"/>
  <linearGradient id="linearGradient2793">
   <stop id="stop2795" style="stop-color:#555753" offset="0"/>
   <stop id="stop2797" style="stop-color:#d3d7cf;stop-opacity:0" offset="1"/>
  </linearGradient>
  <linearGradient id="linearGradient3473" y2="37.217" xlink:href="#linearGradient2793" spreadMethod="reflect" gradientUnits="userSpaceOnUse" x2="64" gradientTransform="matrix(.21423 0 0 .19643 -1.6864 -1.3152)" y1="37.217" x1="32.627"/>
  <linearGradient id="linearGradient3475" y2="31.226" gradientUnits="userSpaceOnUse" x2="63.999" gradientTransform="matrix(.20572 0 0 .20890 -1.1415 -2.158)" y1="6.4738" x1="63.999">
   <stop id="stop4304" style="stop-color:#c0c0c0" offset="0"/>
   <stop id="stop4306" style="stop-color:#abacb0" offset="1"/>
  </linearGradient>
  <linearGradient id="linearGradient3477" y2="10.9" xlink:href="#linearGradient2793" spreadMethod="reflect" gradientUnits="userSpaceOnUse" x2="55.992" gradientTransform="matrix(.17957 0 0 .18234 .53191 .39342)" y1="47.259" x1="92.005"/>
  <linearGradient id="linearGradient3446" y2="39.751" gradientUnits="userSpaceOnUse" x2="31.71" gradientTransform="matrix(.34525 0 0 .52929 4.8404 8.327)" y1="38.13" x1="4.885">
   <stop id="stop3317" style="stop-color:#f8f8f8;stop-opacity:.15464" offset="0"/>
   <stop id="stop3322" style="stop-color:#b0b2b6;stop-opacity:.17526" offset=".58784"/>
   <stop id="stop3319" style="stop-color:#5b5e62;stop-opacity:.32990" offset=".75933"/>
   <stop id="stop2342" style="stop-color:#fff;stop-opacity:.15464" offset="1"/>
  </linearGradient>
  <linearGradient id="linearGradient3448" y2="57.746" gradientUnits="userSpaceOnUse" x2="29.233" gradientTransform="matrix(.28539 0 0 .37390 3.5008 15.002)" y1="-20.891" x1="29.66">
   <stop id="stop4296" style="stop-color:#bfc2c2" offset="0"/>
   <stop id="stop4298" style="stop-color:#676b73" offset="1"/>
  </linearGradient>
  <linearGradient id="linearGradient3488" y2="53.131" gradientUnits="userSpaceOnUse" x2="13.483" y1="53.131" x1="23.374">
   <stop id="stop158" style="stop-color:#babdb6" offset="0"/>
   <stop id="stop159" style="stop-color:#f1f5ec" offset="1"/>
  </linearGradient>
  <linearGradient id="linearGradient3490" y2="68.298" xlink:href="#linearGradient2793" spreadMethod="reflect" gradientUnits="userSpaceOnUse" x2="37.462" gradientTransform="matrix(.33978 0 0 .36612 .76225 .93081)" y1="52.355" x1="27.405"/>
 </defs>
 <g id="layer1" transform="matrix(.98525 0 0 1 -2.9427 -17)">
  <g id="g3483" style="stroke-width:1.4981" transform="matrix(.70242 0 0 .64352 3.4224 17.977)">
   <path id="path2512" style="stroke-linejoin:round;fill-rule:evenodd;stroke:#838383;stroke-linecap:round;stroke-width:3.5143;fill:url(#linearGradient3488)" d="m41.359 53.131c0 1.1179-1.7541 2.229-4.7672 3.0195s-4.7615 1.2507-9.0226 1.2507-6.01-0.46021-9.023-1.2507c-3.0131-0.7905-4.7672-1.9016-4.7672-3.0195s1.7541-2.229 4.7672-3.0195 4.7619-1.2507 9.023-1.2507 6.0095 0.46021 9.0226 1.2507c3.0131 0.7905 4.7672 1.9016 4.7672 3.0195z" transform="matrix(.42213 0 0 .43047 -.66308 -2.1932)"/>
   <path id="path2514" style="stroke-linejoin:round;fill-rule:evenodd;stroke:#838383;stroke-linecap:round;stroke-width:3.8939;fill:#d9dcd5" d="m41.14 53.131c0 1.1179-1.7541 2.229-4.7672 3.0195s-4.6517 1.2507-8.9128 1.2507-5.9002-0.46021-8.9132-1.2507c-3.0131-0.7905-4.7672-1.9016-4.7672-3.0195s1.7541-2.229 4.7672-3.0195 4.6521-1.2507 8.9132-1.2507 5.8997 0.46021 8.9128 1.2507c3.0131 0.7905 4.7672 1.9016 4.7672 3.0195z" transform="matrix(.40427 0 0 .36612 -.12638 .93081)"/>
   <path id="path2518" style="opacity:.5;fill-rule:evenodd;fill:url(#linearGradient3490)" d="m16.505 20.383a5.5304 1.5634 0 0 1 -11.061 0 5.5304 1.5634 0 1 1 11.061 0z"/>
  </g>
  <path id="path2520" style="stroke-linejoin:round;fill-rule:evenodd;stroke:url(#linearGradient3448);stroke-linecap:round;stroke-width:1.0072;fill:url(#linearGradient3446)" d="m5.8561 20.775c-0.012948-0.02182 0.71239 9.3701 0.71254 9.3748 0.048927 1.5697 1.6633 2.2273 4.6048 2.3506 3.5943-0.04854 4.4273-1.2591 4.4782-2.3506 0.0041-0.02152 0.72862-9.3533 0.73271-9.3748 0.67885-3.4751-3.0511-3.2196-4.9448-3.2196-2.0333 0-6.3484-0.08169-5.5835 3.2196z"/>
  <g id="g3454" style="stroke-width:1.2911" transform="matrix(.65342 0 0 .93131 3.2497 17.028)">
   <path id="path2516" style="opacity:.77273;stroke-linejoin:round;fill-opacity:.51309;fill-rule:evenodd;stroke:#636363;stroke-linecap:round;stroke-width:5.9106;fill:#585858" d="m98.723 24.096a32.812 6.9078 0 1 1 -65.624 0 32.812 6.9078 0 1 1 65.624 0z" transform="matrix(.22083 0 0 .21608 -2.1086 -1.7481)"/>
   <path id="path2522" style="fill:#d9dcd5;fill-rule:evenodd" d="m4.459 3.6132s6.0171-1.8961 14.852-0.27906c3.3686-2.5499-7.9449-2.7365-7.9449-2.7365s-9.7035 0.52783-6.9069 3.0156z"/>
   <path id="path2524" style="stroke-linejoin:round;fill-rule:evenodd;stroke:#636363;stroke-linecap:round;stroke-width:1.2911;fill:url(#linearGradient3471)" d="m4.459 3.6132s6.0171-1.8961 14.852-0.27906c3.3686-2.5499-7.9449-2.4141-7.9449-2.4141s-9.7035 0.20543-6.9069 2.6931z"/>
   <path id="path2526" style="stroke-linejoin:round;fill-rule:evenodd;stroke:#808389;stroke-linecap:round;stroke-width:1.2911;fill:#fff" d="m3.4811 2.3777v1.6949c0 1.0357 3.8264 1.8772 8.5433 1.8772s8.5433-0.84148 8.5433-1.8772v-1.6949c-5.0223 3.0666-16.363 1.4776-17.087 0z"/>
   <path id="path2528" style="stroke-linejoin:round;fill-rule:evenodd;stroke:#808389;stroke-linecap:round;stroke-width:1.2911;fill:url(#linearGradient3473)" d="m3.4811 2.8077v1.2649c0 1.0357 3.8264 1.8772 8.5433 1.8772s8.5433-0.84148 8.5433-1.8772v-1.6949c-5.023 3.0667-16.276 1.4236-17.087 0.43z"/>
   <path id="path2530" style="stroke-linejoin:round;stroke:url(#linearGradient3475);stroke-linecap:round;stroke-width:1.2911;fill:none" d="m11.769 0.50725c-0.27892 0.001536-0.55728 0.007619-0.835 0.013505-2.0792 0.07509-4.2133 0.24436-6.1073 0.85084-0.6285 0.2187-1.4311 0.5709-1.3387 1.1074 0.1996 0.5789 1.1303 0.8593 1.877 1.0804 2.2491 0.5787 4.706 0.7063 7.101 0.6955 2.213-0.041 4.483-0.1896 6.528-0.7833 0.673-0.2195 1.524-0.5311 1.574-1.0871 0-0.065-0.013-0.1338-0.042-0.1959-0.327-0.5617-1.258-0.8169-2.042-1.0331-2.143-0.51271-4.444-0.66075-6.715-0.64825z"/>
   <path id="path2532" style="fill-rule:evenodd;fill:url(#linearGradient3477)" d="m11.769 0.50725c-0.27892 0.001536-0.55728 0.007619-0.835 0.013505-2.0792 0.07509-4.2133 0.24436-6.1073 0.85084-0.6285 0.2187-1.4311 0.5709-1.3387 1.1074 0.1996 0.5789 1.1303 0.8593 1.877 1.0804 2.2491 0.5787 4.706 0.7063 7.101 0.6955 2.213-0.041 4.483-0.1896 6.528-0.7833 0.673-0.2195 1.524-0.5311 1.574-1.0871 0-0.065-0.013-0.1338-0.042-0.1959-0.327-0.5617-1.258-0.8169-2.042-1.0331-2.143-0.51271-4.444-0.66075-6.715-0.64825zm-0.407 0.29711c2.197-0.029681 4.4373 0.079495 6.5144 0.53345 0.71091 0.17891 1.553 0.39282 1.8494 0.85757 0.0261 0.051328 0.04148 0.10161 0.04141 0.15531-0.04451 0.46004-0.81895 0.7165-1.4285 0.89809-1.853 0.4912-3.91 0.621-5.914 0.655-2.17 0.0089-4.3947-0.1019-6.432-0.5807-0.6764-0.1829-1.5168-0.4124-1.6976-0.8914-0.0837-0.4439 0.6383-0.7373 1.2076-0.9183 1.7156-0.5018 3.6511-0.64016 5.535-0.70229 0.10782-0.002087 0.21629-0.005293 0.32434-0.006753z"/>
  </g>
 </g>
</svg>
